X:22
T:Le dromadaire
C:Patrick Bouffard
I:Bourree Centre France
Q:1/4=150
M:2/4
K:Bb
D4 C2(D2|D2)^F2 ^F2D2|G3^F GA(B2|B2)A2 GABc|
d4^c2(A2|A2)c2 B2A2|1B3A G2^F|^F2G2 A2^F2:|2B3A ^F(G|G8)||
d4 ^c2(A2|A2)c2 B2A2|B3A G2(^F|^F)G A2^F2|
D4 C2(D2|D2)^F2 ^F2D2|1G3^F GA(B2|B2)A2 GABc:|2G3A G^FG2|G8:|
